X:12
T:Coppermill
C:Michael Gray
B:William Livingstone Volume 1
H:
O:Kevin Fraser
Z:Kevin Fraser
Q:1/4=90
K:HP
M:2/4
L:1/16
R:March
U: R = ///
U: r = //
U: V = !accent!
V:M gstem=up stem=down name="Melody" sname="Melody" 
V:H gstem=up stem=down name="Harmony" sname="Harmony"
V:C gstem=up stem=down name="C-Harmony" sname="C-Harmony"
V:S gstem=up stem=down clef=none dyn=up name="Snare" sname="Snare"
V:B gstem=up stem=down clef=none dyn=up name="Bass" sname="Bass"
V:T gstem=up stem=down clef=none dyn=up name="Tenor" sname="Tenor"
V:BB gstem=up stem=down name="Brass Bass" sname="Bass" transpose=-1  octave=-2 clef=bass
V:BC gstem=up stem=down name="Brass Chord" sname="ABCD-D" transpose=-1
V:BD gstem=up stem=down name="Brass Chord 2" sname="ABCD-B" transpose=-1
V:P gstem=up stem=down name="Piano" sname="Piano" transpose=0 octave=-1
I:MIDI=program 110
%%MIDI gracedivider 40
% %score {M BC BD BB}
% %MIDI program 109 #bagpipes
%%MIDI vol 100
[V:M] [:e2| {gAGAG}A4 {GdG}e3f | {a}g>ag>e {Gdc}d2{g}f2 | {a}g2{gAGAG}A2 {g}e>fg>e | {g}d>B{d}G>A {gBd}B2{g}e2 |
[V:M]     | {gAGAG}A4 {GdG}e3f | {a}g>ag>e {Gdc}d2{g}f2 | {g}e>fg>e {g} d>B{d}G>A | {gBd}B2{e}A2 {GAG}A2 :]
[V:M] [:{g}e>f | {gf}g4 {GdG}g3e | {a}g>ag>e {Gdc}d2{g}e>f | {a}g2{gAGAG}A2 {g}e>fg>e | {g}d>B{d}G>A {gBd}B2[1{g}e>f |
[V:M]          |[1 {gf}g4 {GdG}g3e | {a}g>ag>e {Gdc}d2{g}f2 |  {g}e>fg>e {g} d>B{d}G>A | {gBd}B2{e}A2 {GAG}A2 :]
[V:M]     |[2 {gAGAG}A4 {GdG}e3f | {a}g>ag>e {Gdc}d2{g}f2 | {g}e>fg>e {g} d>B{d}G>A | {gBd}B2{e}A2 {GAG}A2 |]

